app/images/icons/cart.svg

<svg width="18" height="16" viewBox="0 0 18 16" fill="none" xmlns="http://www.w3.org/2000/svg">
<path d="M15.8966 9.0698L17.3195 2.80893C17.4223 2.35689 17.0787 1.92642 16.6151 1.92642H4.79221L4.51631 0.577625C4.44757 0.241435 4.15174 0 3.80857 0H0.722408C0.323428 0 0 0.323428 0 0.722408V1.20401C0 1.60299 0.323428 1.92642 0.722408 1.92642H2.82591L4.9404 12.2639C4.43453 12.5548 4.09365 13.1003 4.09365 13.7258C4.09365 14.6567 4.84832 15.4114 5.77926 15.4114C6.71021 15.4114 7.46488 14.6567 7.46488 13.7258C7.46488 13.254 7.27083 12.8277 6.95848 12.5217H13.2689C12.9566 12.8277 12.7625 13.254 12.7625 13.7258C12.7625 14.6567 13.5172 15.4114 14.4482 15.4114C15.3791 15.4114 16.1338 14.6567 16.1338 13.7258C16.1338 13.0584 15.7458 12.4816 15.1832 12.2085L15.3493 11.4778C15.452 11.0258 15.1084 10.5953 14.6449 10.5953H6.56539L6.36839 9.63211H15.1922C15.5295 9.63211 15.8218 9.39871 15.8966 9.0698Z" fill="#262626"/>
</svg>

<svg width="18" height="16" fill="none" xmlns="http://www.w3.org/2000/svg"><path d="M15.897 9.07l1.423-6.261a.722.722 0 00-.705-.883H4.792L4.516.578A.722.722 0 003.81 0H.722A.722.722 0 000 .722v.482c0 .399.323.722.722.722h2.104L4.94 12.264a1.685 1.685 0 00.84 3.147 1.686 1.686 0 001.178-2.89h6.31a1.686 1.686 0 101.914-.313l.167-.73a.722.722 0 00-.704-.883h-8.08l-.197-.963h8.824c.338 0 .63-.233.705-.562z" fill="#262626"/></svg>
